img/news/LIVE_MINT.svg

<svg fill="none" height="24" viewBox="0 0 100 24" width="100" xmlns="http://www.w3.org/2000/svg"><path d="m40.7734 23.3706h-9.3515v-3.1506h.9335c.4167 0 .5501-.2333.5501-.6167v-7.9013c0-.3834-.1501-.6168-.5501-.6168h-.9335v-3.25056h8.2847v2.35036c1.0002-1.83361 2.5838-2.68375 4.8175-2.68375 3.0338 0 4.1173 1.16686 4.4674 2.96715.9335-2.067 2.5837-2.96715 4.9341-2.96715 3.8507 0 4.5841 1.86698 4.5841 4.65075v7.4679c0 .3834.1834.6168.6501.6168h.8002v3.1505h-9.2016v-3.1672h.3834c.3834 0 .5501-.2333.5501-.6167v-6.7512c0-1.2835-.2834-1.6836-1.1835-1.6836-1.1835 0-1.4002.9669-1.4002 2.4838v5.9176c0 .4168.1833.6501.5501.6501h.5v3.1506h-8.8181v-3.1506h.3834c.3834 0 .5501-.2333.5501-.6167v-6.7512c0-1.2835-.2834-1.6836-1.1835-1.6836-1.1836 0-1.4003.9669-1.4003 2.4838v5.9176c0 .4168.15.6501.5501.6501h.5001v3.1506zm24.5541-23.3706c1.8837 0 3.4173 1.55026 3.4173 3.45057 0 1.86698-1.5336 3.41724-3.4173 3.41724-1.8503 0-3.3839-1.55026-3.3839-3.41724 0-1.90031 1.5336-3.45057 3.3839-3.45057zm-3.3505 11.6853c0-.3834-.15-.6168-.5501-.6168h-.9335v-3.25053h8.2847v11.75193c0 .4168.15.6501.5501.6501h.8835v3.1506h-9.735v-3.1506h.9335c.4168 0 .5501-.2333.5501-.6167v-7.918zm18.103 11.6853h-9.3516v-3.1506h.9335c.4168 0 .5501-.2333.5501-.6167v-7.9013c0-.3834-.15-.6168-.5501-.6168h-.9335v-3.25056h8.2848v2.38376c.9334-1.86701 2.5004-2.70048 5.0508-2.70048 3.5506 0 4.4674 1.86698 4.4674 4.65078v7.4679c0 .3834.15.6168.6168.6168h.8335v3.1505h-9.3183v-3.1839h.5001c.3834 0 .5501-.2333.5501-.6167v-6.7512c0-1.2835-.3167-1.6836-1.1835-1.6836-1.1836 0-1.5336.9669-1.5336 2.4838v5.9176c0 .4168.15.6501.5501.6501h.5001zm8.9348-15.55263 1.6503-.10002.2667-3.55059h6.2844v3.61727h2.6338v3.20057h-2.6505v6.7511c0 1.8336.3501 2.4337 2.3504 2.4337h.4501v3.1506c-1.3169.15-2.7005.2-4.0173.2-3.634 0-5.3009-1.1002-5.551-4.2174v-8.2847h-1.4002z" fill="#f7941d"/><path d="m3.76729 20.6868c0 .5834 0 1.0168.05001 1.3669.10002.4167.33339.6167.58343.7501.20004.1.41674.1334.61677.15v.2001h-5.0175v-.2001c.200033-.0166.450075-.0667.583431-.15.28338-.1334.500079-.3334.566759-.6668.10002-.4.10002-.8168.10002-1.4502v-10.3684c0-.33341 0-1.1002-.05001-1.40025-.10002-.31672-.20003-.51675-.383397-.65011-.216703-.15002-.400068-.18336-.7501262-.20003v-.18337h3.5839332c.10002 0 .15002.01667.15002.18337 0 .45007-.01667.98349-.01667 1.81697v10.80182zm3.1672-10.6185c0-.81676.58343-1.4502 1.45024-1.4502s1.45024.65011 1.45024 1.4502c0 .8002-.58343 1.4503-1.45024 1.4503s-1.45024-.6501-1.45024-1.4503zm2.75046 10.7018c0 .5501.01667.9668.10001 1.2669.10002.4501.30004.6168.58344.7501.15.1.3834.1334.6001.15v.2001h-5.01751v-.2001c.20003-.0166.45008-.0666.6001-.15.26671-.1333.48342-.35.55009-.6501.10002-.35.10002-.7834.10002-1.4002v-5.1842c0-.3501 0-1.1502-.05001-1.4169-.06668-.3001-.20003-.5168-.40006-.6168-.18337-.1333-.3834-.2-.78347-.2v-.2001h3.6006c.10002 0 .15003.0167.15003.1501-.01667.4667-.05001.9668-.05001 1.8169zm10.95185-7.2845c-.2001.1333-.3834.2667-.5001.5501-.1834.2667-.4501.8501-.7001 1.6169l-2.7005 7.5679h-1.2002l-2.5004-7.0845c-.2667-.7168-.5334-1.4502-.6501-1.7503-.2-.45-.3501-.7001-.6001-.8668-.2167-.15-.4667-.2-.7001-.25v-.1834h5.2675v.1834c-.3.0166-.6001.1-.8001.1833-.1834.1001-.2834.3834-.2834.6668 0 .3501.1334.8001.3834 1.5669l1.5503 4.9175h.05l1.7003-4.8341c.2833-.8001.3834-1.2502.3834-1.5836 0-.4167-.1834-.6168-.3834-.7501-.2001-.1001-.4168-.1501-.6501-.1834v-.1834h2.9171v.1834c-.1834.0667-.4001.1167-.5834.2334zm3.2338 3.7006h3.3339c.5668 0 .7335-.15.7335-.9668 0-1.2169-.2-2.0337-.5834-2.4838-.3001-.3167-.6501-.4667-1.2336-.4667-.5001 0-.9501.1833-1.3002.5501-.4834.5-.8335 1.8003-.9502 3.3672zm2.3171 6.1844c-1.5003 0-2.6838-.4668-3.5339-1.3003-1.0335-1.0001-1.4836-2.3837-1.4836-3.8839 0-3.1506 2.2337-5.3009 4.9342-5.3009 2.9338 0 4.2173 2.0503 4.2173 3.8339 0 .2501 0 .6001-.05.8502h-6.4344v.4667c0 1.9004.3334 3.2172.8835 3.834.4834.5334 1.1668.8001 1.9503.8001 1.9503 0 2.8838-1.3669 3.2839-2.7838l.3834.1001c-.5334 1.9503-1.8336 3.3839-4.1507 3.3839z" fill="#000"/></svg>

<svg width="100" height="24" viewBox="0 0 100 24" fill="none" xmlns="http://www.w3.org/2000/svg">
<path d="M40.7734 23.3706H31.4219V20.22H32.3554C32.7721 20.22 32.9055 19.9867 32.9055 19.6033V11.702C32.9055 11.3186 32.7554 11.0852 32.3554 11.0852H31.4219V7.83464H39.7066V10.185C40.7068 8.35139 42.2904 7.50125 44.5241 7.50125C47.5579 7.50125 48.6414 8.66811 48.9915 10.4684C49.925 8.4014 51.5752 7.50125 53.9256 7.50125C57.7763 7.50125 58.5097 9.36823 58.5097 12.152V19.6199C58.5097 20.0033 58.6931 20.2367 59.1598 20.2367H59.96V23.3872H50.7584V20.22H51.1418C51.5252 20.22 51.6919 19.9867 51.6919 19.6033V12.8521C51.6919 11.5686 51.4085 11.1685 50.5084 11.1685C49.3249 11.1685 49.1082 12.1354 49.1082 13.6523V19.5699C49.1082 19.9867 49.2915 20.22 49.6583 20.22H50.1583V23.3706H41.3402V20.22H41.7236C42.107 20.22 42.2737 19.9867 42.2737 19.6033V12.8521C42.2737 11.5686 41.9903 11.1685 41.0902 11.1685C39.9066 11.1685 39.6899 12.1354 39.6899 13.6523V19.5699C39.6899 19.9867 39.8399 20.22 40.24 20.22H40.7401V23.3706H40.7734ZM65.3275 0C67.2112 0 68.7448 1.55026 68.7448 3.45057C68.7448 5.31755 67.2112 6.86781 65.3275 6.86781C63.4772 6.86781 61.9436 5.31755 61.9436 3.45057C61.9436 1.55026 63.4772 0 65.3275 0ZM61.977 11.6853C61.977 11.3019 61.827 11.0685 61.4269 11.0685H60.4934V7.81797H68.7781V19.5699C68.7781 19.9867 68.9281 20.22 69.3282 20.22H70.2117V23.3706H60.4767V20.22H61.4102C61.827 20.22 61.9603 19.9867 61.9603 19.6033V11.6853H61.977ZM80.08 23.3706H70.7284V20.22H71.6619C72.0787 20.22 72.212 19.9867 72.212 19.6033V11.702C72.212 11.3186 72.062 11.0852 71.6619 11.0852H70.7284V7.83464H79.0132V10.2184C79.9466 8.35139 81.5136 7.51792 84.064 7.51792C87.6146 7.51792 88.5314 9.3849 88.5314 12.1687V19.6366C88.5314 20.02 88.6814 20.2534 89.1482 20.2534H89.9817V23.4039H80.6634V20.22H81.1635C81.5469 20.22 81.7136 19.9867 81.7136 19.6033V12.8521C81.7136 11.5686 81.3969 11.1685 80.5301 11.1685C79.3465 11.1685 78.9965 12.1354 78.9965 13.6523V19.5699C78.9965 19.9867 79.1465 20.22 79.5466 20.22H80.0467L80.08 23.3706ZM89.0148 7.81797L90.6651 7.71795L90.9318 4.16736H97.2162V7.78463H99.85V10.9852H97.1995V17.7363C97.1995 19.5699 97.5496 20.17 99.5499 20.17H100V23.3206C98.6831 23.4706 97.2995 23.5206 95.9827 23.5206C92.3487 23.5206 90.6818 22.4204 90.4317 19.3032V11.0185H89.0315L89.0148 7.81797Z" fill="#F7941D"/>
<path d="M3.76729 20.6868C3.76729 21.2702 3.76729 21.7036 3.8173 22.0537C3.91732 22.4704 4.15069 22.6704 4.40073 22.8038C4.60077 22.9038 4.81747 22.9372 5.0175 22.9538V23.1539H0V22.9538C0.200033 22.9372 0.450075 22.8871 0.583431 22.8038C0.866811 22.6704 1.08351 22.4704 1.15019 22.137C1.25021 21.737 1.25021 21.3202 1.25021 20.6868V10.3184C1.25021 9.98499 1.25021 9.2182 1.2002 8.91815C1.10018 8.60143 1.00017 8.4014 0.816803 8.26804C0.6001 8.11802 0.416735 8.08468 0.0666768 8.06801V7.88464H3.65061C3.75063 7.88464 3.80063 7.90131 3.80063 8.06801C3.80063 8.51808 3.78396 9.0515 3.78396 9.88498V20.6868H3.76729ZM6.93449 10.0683C6.93449 9.25154 7.51792 8.6181 8.38473 8.6181C9.25154 8.6181 9.83497 9.26821 9.83497 10.0683C9.83497 10.8685 9.25154 11.5186 8.38473 11.5186C7.51792 11.5186 6.93449 10.8685 6.93449 10.0683ZM9.68495 20.7701C9.68495 21.3202 9.70162 21.7369 9.78496 22.037C9.88498 22.4871 10.085 22.6538 10.3684 22.7871C10.5184 22.8871 10.7518 22.9205 10.9685 22.9371V23.1372H5.95099V22.9371C6.15102 22.9205 6.40107 22.8705 6.55109 22.7871C6.8178 22.6538 7.03451 22.4371 7.10118 22.137C7.2012 21.787 7.2012 21.3536 7.2012 20.7368V15.5526C7.2012 15.2025 7.2012 14.4024 7.15119 14.1357C7.08451 13.8356 6.95116 13.6189 6.75113 13.5189C6.56776 13.3856 6.36773 13.3189 5.96766 13.3189V13.1188H9.56826C9.66828 13.1188 9.71829 13.1355 9.71829 13.2689C9.70162 13.7356 9.66828 14.2357 9.66828 15.0858L9.68495 20.7701ZM20.6368 13.4856C20.4367 13.6189 20.2534 13.7523 20.1367 14.0357C19.9533 14.3024 19.6866 14.8858 19.4366 15.6526L16.7361 23.2205H15.5359L13.0355 16.136C12.7688 15.4192 12.5021 14.6858 12.3854 14.3857C12.1854 13.9357 12.0353 13.6856 11.7853 13.5189C11.5686 13.3689 11.3186 13.3189 11.0852 13.2689V13.0855H16.3527V13.2689C16.0527 13.2855 15.7526 13.3689 15.5526 13.4522C15.3692 13.5523 15.2692 13.8356 15.2692 14.119C15.2692 14.4691 15.4026 14.9191 15.6526 15.6859L17.2029 20.6034H17.2529L18.9532 15.7693C19.2365 14.9692 19.3366 14.5191 19.3366 14.1857C19.3366 13.769 19.1532 13.5689 18.9532 13.4356C18.7531 13.3355 18.5364 13.2855 18.3031 13.2522V13.0688H21.2202V13.2522C21.0368 13.3189 20.8201 13.3689 20.6368 13.4856ZM23.8706 17.1862H27.2045C27.7713 17.1862 27.938 17.0362 27.938 16.2194C27.938 15.0025 27.738 14.1857 27.3546 13.7356C27.0545 13.4189 26.7045 13.2689 26.121 13.2689C25.6209 13.2689 25.1709 13.4522 24.8208 13.819C24.3374 14.319 23.9873 15.6193 23.8706 17.1862ZM26.1877 23.3706C24.6874 23.3706 23.5039 22.9038 22.6538 22.0703C21.6203 21.0702 21.1702 19.6866 21.1702 18.1864C21.1702 15.0358 23.4039 12.8855 26.1044 12.8855C29.0382 12.8855 30.3217 14.9358 30.3217 16.7194C30.3217 16.9695 30.3217 17.3195 30.2717 17.5696H23.8373V18.0363C23.8373 19.9367 24.1707 21.2535 24.7208 21.8703C25.2042 22.4037 25.8876 22.6704 26.6711 22.6704C28.6214 22.6704 29.5549 21.3035 29.955 19.8866L30.3384 19.9867C29.805 21.937 28.5048 23.3706 26.1877 23.3706Z" fill="black"/>
</svg>
